X: 11099
T: TURTLE ON THE ROCK
C: Bob McQuillen 29 Sept 99
B: Bob's Note Book 11 #99
%R: reel
Z: 2019 John Chambers <jc:trillian.mit.edu>
M: C
L: 1/8
K: D
AG \
| FDFA GBAG | FDFA d2fe | dfaf gfed | BdAF E2AG |
| FDFA GBAG | FDFA dBAG | FAdf gecd | e2d2 d2  :|
|: de \
| f2df edcA | BdAF D2FA | BGBd gfed | cdec A2FA |
| BGBd cABc | d2df e2ag | fafd ceag | f2d2 d2  :|
%%begintext align
%% Just before you get to Keene,
%% there's a little tiny frog pond with a rock that sticks up out of
%% the water. Whenever Deanna and I go to the Old Songs Festival
%% over in Altamont, NY, we always see a turtle sunning itself,
%% on the rock. This has gone on for several years now, but it's
%% always the same turtle! We know this because it has a
%% funny little white mark just over one eye.
%%endtext

%%sep 1 1 500

%%sep 1 1 500

